X:1
T:Lyngham
T:Lyngham
T:Thomas Jarman, circa 1803
T:Public Domain Courtesy of the Cyber Hymnal™
C:Thomas Jarman, circa 1803
Z:Public Domain
Z:Courtesy of the Cyber Hymnal™
%%score 1 ( 2 3 )
L:1/8
M:2/2
K:G
V:1 treble 
V:2 bass 
V:3 bass 
V:1
 [DG]4 [DB]3 [Dc] | [Dd]>edc B2 [Ec]2 | [DB]2 G2 [DA]2 F2 | [DG]6 [GB]2 | [Fc]2 [GB]2 A2 [EG]2 | %5
 [EA]6 [FA]2 | [GB]>ABc d2 [Ge]2 | [Fd]4 [E^c]4 | [Fd]8 | [Gd]4 [Gd]2 [Gd]2 | [GB]3 A G2 [GB]2 | %11
 [Fc]2 [GB]2 A2 [EG]2 | [FA]6 z2 | z6 G2 | [Ec]2 [Ec]2 [Ec]2 [Ec]2 | [DB]6 [DB]2 | %16
 [DA]2 [FA]2 [FA][GB][Ac]>[FA] | [Gd]2 F2 G2 [Gd]2 | [Ge]2 d2 [Fc]2 [GB]2 | [GA]4 F2 A2 | [DG]8 |] %21
V:2
 [G,B,]4 G,3 [G,A,] | [G,B,]>CB,A, G,2 [C,G,]2 | [D,G,]2 B,2 [D,C]2 A,2 | [G,B,]6 [G,D]2 | %4
 [A,D]2 [G,D]2 [F,D]2 [E,^C]2 | [D,D]6 [D,D]2 | [G,D]3 C B,2 [E,B,]2 | A,4 [A,,A,]4 | [D,A,]8 | %9
 [G,B,]4 [G,B,]2 [G,B,]2 | [G,D]3 C B,2 [G,D]2 | [A,D]2 G,2 F,2 [E,^C]2 | [D,D]6 [D,D]2 | %13
 G,2 A,2 B,2 G,2 | [C,G,]6 [C,G,]2 | G,2 [G,D]2 [G,B,]2 G,2 | [D,F,]2 A,2 D2 [D,C]2 | %17
 [G,B,]2 A,2 [G,B,]2 [G,B,]2 | C2 [B,D]2 [A,D]2 [G,D]2 | [D,D]6 [D,C]2 | [G,,B,]8 |] %21
V:3
 x4 G,3 x | x8 | x8 | x8 | x8 | x8 | x8 | x8 | x8 | x8 | x8 | x8 | x8 | x8 | x8 | x8 | x8 | x8 | %18
 x8 | x8 | x8 |] %21

